img/svg/question.svg

<svg width="20" height="20" viewBox="0 0 20 20" fill="none" xmlns="http://www.w3.org/2000/svg">
<g clip-path="url(#clip0_777_1528)">
<path d="M9.99977 0.916016C4.98289 0.916016 0.916016 4.98289 0.916016 9.99977C0.916016 15.0166 4.98289 19.0835 9.99977 19.0835C15.0166 19.0835 19.0835 15.0166 19.0835 9.99977C19.0835 4.98289 15.0166 0.916016 9.99977 0.916016ZM10.8298 15.2316H9.13727V13.6098H10.8298V15.2316ZM10.8298 11.8773V12.4135H9.13727V11.7535C9.13727 9.75976 11.406 9.44351 11.406 8.02664C11.406 7.38102 10.8291 6.88601 10.0729 6.88601C9.28914 6.88601 8.60164 7.46352 8.60164 7.46352L7.63914 6.26602C7.63914 6.26602 8.58727 5.27477 10.2235 5.27477C11.7773 5.27477 13.2204 6.23727 13.2204 7.85977C13.2204 10.1298 10.8285 10.391 10.8285 11.8766L10.8298 11.8773Z" fill="#6D6E73"/>
</g>
<defs>
<clipPath id="clip0_777_1528">
<rect width="20" height="20" fill="white"/>
</clipPath>
</defs>
</svg>

<svg width="20" height="20" viewBox="0 0 20 20" fill="none" xmlns="http://www.w3.org/2000/svg"><g clip-path="url(#clip0_777_1528)"><path d="M10 .916a9.084 9.084 0 100 18.168A9.084 9.084 0 1010 .916zm.83 14.316H9.137V13.61h1.693v1.622zm0-3.355v.537H9.137v-.66c0-1.994 2.269-2.31 2.269-3.727 0-.646-.577-1.141-1.333-1.141-.784 0-1.471.578-1.471.578l-.963-1.198s.948-.991 2.584-.991c1.554 0 2.997.962 2.997 2.585 0 2.27-2.392 2.531-2.392 4.017h.002z" fill="#6D6E73"/></g><defs><clipPath id="clip0_777_1528"><path fill="#fff" d="M0 0h20v20H0z"/></clipPath></defs></svg>
